assets/images/icons-13.svg

<svg viewBox="0 0 45 45" xmlns="http://www.w3.org/2000/svg"><g fill="#fff"><path d="m29.17 15.06a5.47 5.47 0 0 0 -.93-2.4 3.28 3.28 0 0 0 -2.31-1c-3.24-.24-8.11-.24-8.11-.24s-4.85 0-8.09.24a3.27 3.27 0 0 0 -2.33 1 5.41 5.41 0 0 0 -.92 2.4 36.78 36.78 0 0 0 -.26 3.94v1.8a36 36 0 0 0 .24 3.89 5.54 5.54 0 0 0 .92 2.42 3.89 3.89 0 0 0 2.57 1c1.84.18 7.87.25 7.87.25s4.87 0 8.11-.25a3.32 3.32 0 0 0 2.31-1 5.61 5.61 0 0 0 .93-2.42s.22-1.93.22-3.89v-1.8c0-1.93-.22-3.89-.22-3.89zm-7.49 4.57-6.27 3.37v-6.77l2.84 1.54z" fill-rule="evenodd"/><path d="m31.41 2.08h-27.21a4.21 4.21 0 0 0 -4.2 4.2v27.21a4.2 4.2 0 0 0 4.2 4.2h27.21a4.2 4.2 0 0 0 4.2-4.2v-27.21a4.21 4.21 0 0 0 -4.2-4.2zm1.73 31.41a1.73 1.73 0 0 1 -1.73 1.73h-27.21a1.72 1.72 0 0 1 -1.73-1.73v-27.21a1.73 1.73 0 0 1 1.73-1.73h27.21a1.74 1.74 0 0 1 1.73 1.73z"/></g></svg>

<svg id="Layer_1" data-name="Layer 1" xmlns="http://www.w3.org/2000/svg" viewBox="0 0 45 45"><defs><style>.cls-1,.cls-2{fill:#fff;}.cls-1{fill-rule:evenodd;}</style></defs><title>icons</title><path class="cls-1" d="M29.17,15.06a5.47,5.47,0,0,0-.93-2.4,3.28,3.28,0,0,0-2.31-1c-3.24-.24-8.11-.24-8.11-.24h0s-4.85,0-8.09.24a3.27,3.27,0,0,0-2.33,1,5.41,5.41,0,0,0-.92,2.4A36.78,36.78,0,0,0,6.22,19V20.8a36,36,0,0,0,.24,3.89,5.54,5.54,0,0,0,.92,2.42,3.89,3.89,0,0,0,2.57,1c1.84.18,7.87.25,7.87.25s4.87,0,8.11-.25a3.32,3.32,0,0,0,2.31-1,5.61,5.61,0,0,0,.93-2.42s.22-1.93.22-3.89V19c0-1.93-.22-3.89-.22-3.89Zm-7.49,4.57L15.41,23V16.23l2.84,1.54Z"/><path class="cls-2" d="M31.41,2.08H4.2A4.21,4.21,0,0,0,0,6.28V33.49a4.2,4.2,0,0,0,4.2,4.2H31.41a4.2,4.2,0,0,0,4.2-4.2V6.28A4.21,4.21,0,0,0,31.41,2.08Zm1.73,31.41a1.73,1.73,0,0,1-1.73,1.73H4.2a1.72,1.72,0,0,1-1.73-1.73V6.28A1.73,1.73,0,0,1,4.2,4.55H31.41a1.74,1.74,0,0,1,1.73,1.73Z"/></svg>
